X:191
T:New Allemand. THO5.191, The
R:Allemand
M:2/4
L:1/8
B:Thompson's Complete Collection of 200 Favourite Dances Vol.5
F:https://www.libraryofdance.org/manuals/1780c-Thompson-Compleat-5.pdf
Z:vmp. Peter Dunk 2024
Q:1/4=110
K:D
(A/G/)|FA AB/c/|dA Af|ef g/f/e/d/|cA AA/G/|
FA AB/c/|dA Af|ed ed/c/|d3:|
|:(f/g/)|af df/g/|a/g/f/e/ de/f/|gf ed|e/d/c/B/ Af/g/|
af df/g/|a/g/f/e/ dA|Bgt f/e/d/c/|d3:|
W:
W:Turn your Partner with your Right Hand & cast off ./.
W:turn with the Left hand & cast off another Couple ./:
W:lead up to the top & cast off :/.
W:Right & Left at top

